images/icon-paints-white.svg

<svg width="90" height="90" viewBox="0 0 90 90" fill="none" xmlns="http://www.w3.org/2000/svg">
<g id="icon-paints">
<g id="Paint Roller">
<path id="Vector" d="M79.425 18.225H70.5V15.675C70.497 14.6615 70.093 13.6903 69.3763 12.9737C68.6597 12.257 67.6885 11.853 66.675 11.85H57.75V8.025C57.75 7.68685 57.6157 7.36255 57.3766 7.12344C57.1375 6.88433 56.8131 6.75 56.475 6.75H8.025C7.68685 6.75 7.36255 6.88433 7.12344 7.12344C6.88433 7.36255 6.75 7.68685 6.75 8.025V79.425C6.75 79.7632 6.88433 80.0874 7.12344 80.3266C7.36255 80.5657 7.68685 80.7 8.025 80.7H46.5045C46.7691 81.443 47.2563 82.0864 47.8996 82.5427C48.543 82.999 49.3113 83.2459 50.1 83.25H57.75C58.7635 83.247 59.7347 82.843 60.4513 82.1263C61.168 81.4097 61.572 80.4385 61.575 79.425V57.75H62.85C63.1881 57.75 63.5125 57.6157 63.7516 57.3766C63.9907 57.1375 64.125 56.8131 64.125 56.475V51.375C64.125 51.0368 63.9907 50.7125 63.7516 50.4734C63.5125 50.2343 63.1881 50.1 62.85 50.1H57.75V45H79.425C80.4385 44.997 81.4097 44.593 82.1263 43.8763C82.843 43.1597 83.247 42.1885 83.25 41.175V22.05C83.247 21.0365 82.843 20.0653 82.1263 19.3487C81.4097 18.632 80.4385 18.228 79.425 18.225ZM70.5 28.425V25.875H75.6V37.35H57.75V32.25H66.675C67.6885 32.247 68.6597 31.843 69.3763 31.1263C70.093 30.4097 70.497 29.4385 70.5 28.425ZM66.675 14.4C67.0131 14.4 67.3375 14.5343 67.5766 14.7734C67.8157 15.0125 67.95 15.3368 67.95 15.675V28.425C67.95 28.7632 67.8157 29.0875 67.5766 29.3266C67.3375 29.5657 67.0131 29.7 66.675 29.7H20.775C20.4368 29.7 20.1125 29.5657 19.8734 29.3266C19.6343 29.0875 19.5 28.7632 19.5 28.425V15.675C19.5 15.3368 19.6343 15.0125 19.8734 14.7734C20.1125 14.5343 20.4368 14.4 20.775 14.4H66.675ZM38.625 33.525C37.6115 33.528 36.6403 33.932 35.9237 34.6487C35.207 35.3653 34.803 36.3365 34.8 37.35V46.275C34.8 46.6132 34.6657 46.9375 34.4266 47.1766C34.1875 47.4157 33.8631 47.55 33.525 47.55C33.1868 47.55 32.8625 47.4157 32.6234 47.1766C32.3843 46.9375 32.25 46.6132 32.25 46.275V42.45C32.25 41.4355 31.847 40.4626 31.1297 39.7453C30.4124 39.028 29.4395 38.625 28.425 38.625C27.4105 38.625 26.4376 39.028 25.7203 39.7453C25.003 40.4626 24.6 41.4355 24.6 42.45V56.475C24.6 56.8131 24.4657 57.1375 24.2266 57.3766C23.9875 57.6157 23.6632 57.75 23.325 57.75C22.9868 57.75 22.6625 57.6157 22.4234 57.3766C22.1843 57.1375 22.05 56.8131 22.05 56.475V32.25H45V42.45C45 42.7882 44.8657 43.1125 44.6266 43.3516C44.3875 43.5907 44.0631 43.725 43.725 43.725C43.3868 43.725 43.0625 43.5907 42.8234 43.3516C42.5843 43.1125 42.45 42.7882 42.45 42.45V37.35C42.447 36.3365 42.043 35.3653 41.3263 34.6487C40.6097 33.932 39.6385 33.528 38.625 33.525ZM46.275 78.15H9.3V9.3H55.2V11.85H20.775C19.7615 11.853 18.7903 12.257 18.0737 12.9737C17.357 13.6903 16.953 14.6615 16.95 15.675V18.225H15.675C14.9993 18.227 14.3519 18.4963 13.8741 18.9741C13.3963 19.4519 13.127 20.0993 13.125 20.775V23.325C13.127 24.0007 13.3963 24.6481 13.8741 25.1259C14.3519 25.6037 14.9993 25.873 15.675 25.875H16.95V28.425C16.9541 29.2137 17.201 29.982 17.6573 30.6254C18.1136 31.2687 18.757 31.7559 19.5 32.0205V56.475C19.5 57.4895 19.903 58.4624 20.6203 59.1797C21.3376 59.897 22.3105 60.3 23.325 60.3C24.3395 60.3 25.3124 59.897 26.0297 59.1797C26.747 58.4624 27.15 57.4895 27.15 56.475V42.45C27.15 42.1118 27.2843 41.7875 27.5234 41.5484C27.7625 41.3093 28.0868 41.175 28.425 41.175C28.7632 41.175 29.0875 41.3093 29.3266 41.5484C29.5657 41.7875 29.7 42.1118 29.7 42.45V46.275C29.7 47.2895 30.103 48.2624 30.8203 48.9797C31.5376 49.697 32.5105 50.1 33.525 50.1C34.5395 50.1 35.5124 49.697 36.2297 48.9797C36.947 48.2624 37.35 47.2895 37.35 46.275V37.35C37.35 37.0118 37.4843 36.6875 37.7234 36.4484C37.9625 36.2093 38.2868 36.075 38.625 36.075C38.9632 36.075 39.2875 36.2093 39.5266 36.4484C39.7657 36.6875 39.9 37.0118 39.9 37.35V42.45C39.9 43.4645 40.303 44.4374 41.0203 45.1547C41.7376 45.872 42.7105 46.275 43.725 46.275C44.7395 46.275 45.7124 45.872 46.4297 45.1547C47.147 44.4374 47.55 43.4645 47.55 42.45V32.25H55.2V37.35H53.925C52.9115 37.353 51.9403 37.757 51.2237 38.4737C50.507 39.1903 50.103 40.1615 50.1 41.175V50.1H45C44.6618 50.1 44.3375 50.2343 44.0984 50.4734C43.8593 50.7125 43.725 51.0368 43.725 51.375V56.475C43.725 56.8131 43.8593 57.1375 44.0984 57.3766C44.3375 57.6157 44.6618 57.75 45 57.75H46.275V78.15ZM16.95 20.775V23.325H15.675V20.775H16.95ZM59.025 79.425C59.025 79.7632 58.8907 80.0874 58.6516 80.3266C58.4125 80.5657 58.0882 80.7 57.75 80.7H50.1C49.7618 80.7 49.4375 80.5657 49.1984 80.3266C48.9593 80.0874 48.825 79.7632 48.825 79.425V57.75H59.025V79.425ZM61.575 52.65V55.2H46.275V52.65H61.575ZM80.7 41.175C80.7 41.5131 80.5657 41.8375 80.3266 42.0766C80.0874 42.3157 79.7632 42.45 79.425 42.45H57.75C57.0743 42.452 56.4269 42.7213 55.9491 43.1991C55.4713 43.6769 55.202 44.3243 55.2 45V50.1H52.65V41.175C52.65 40.8368 52.7843 40.5125 53.0234 40.2734C53.2625 40.0343 53.5868 39.9 53.925 39.9H75.6C76.2757 39.898 76.9231 39.6287 77.4009 39.1509C77.8787 38.6731 78.148 38.0257 78.15 37.35V25.875C78.148 25.1993 77.8787 24.5519 77.4009 24.0741C76.9231 23.5963 76.2757 23.327 75.6 23.325H70.5V20.775H79.425C79.7632 20.775 80.0874 20.9093 80.3266 21.1484C80.5657 21.3875 80.7 21.7118 80.7 22.05V41.175Z" fill="white"/>
<path id="Vector_2" d="M23.3249 62.85C22.5684 62.85 21.8289 63.0743 21.1999 63.4946C20.5709 63.9149 20.0806 64.5123 19.7911 65.2112C19.5016 65.9101 19.4258 66.6792 19.5734 67.4212C19.721 68.1632 20.0853 68.8447 20.6203 69.3797C21.1552 69.9146 21.8367 70.2789 22.5787 70.4265C23.3207 70.5741 24.0898 70.4983 24.7887 70.2088C25.4876 69.9193 26.085 69.4291 26.5053 68.8C26.9256 68.171 27.1499 67.4315 27.1499 66.675C27.1499 65.6605 26.7469 64.6876 26.0296 63.9703C25.3123 63.253 24.3394 62.85 23.3249 62.85ZM23.3249 67.95C23.0728 67.95 22.8263 67.8752 22.6166 67.7351C22.4069 67.595 22.2435 67.3959 22.147 67.1629C22.0505 66.9299 22.0252 66.6736 22.0744 66.4262C22.1236 66.1789 22.2451 65.9517 22.4234 65.7734C22.6017 65.5951 22.8289 65.4737 23.0762 65.4245C23.3235 65.3753 23.5799 65.4005 23.8129 65.497C24.0458 65.5935 24.245 65.757 24.3851 65.9666C24.5252 66.1763 24.5999 66.4228 24.5999 66.675C24.5999 67.0131 24.4656 67.3374 24.2265 67.5765C23.9874 67.8156 23.6631 67.95 23.3249 67.95Z" fill="white"/>
<path id="Vector_3" d="M33.525 52.65C32.7685 52.65 32.029 52.8744 31.4 53.2947C30.7709 53.715 30.2807 54.3123 29.9912 55.0113C29.7017 55.7102 29.6259 56.4793 29.7735 57.2212C29.9211 57.9632 30.2854 58.6448 30.8203 59.1797C31.3553 59.7146 32.0368 60.0789 32.7788 60.2265C33.5208 60.3741 34.2898 60.2984 34.9888 60.0089C35.6877 59.7194 36.2851 59.2291 36.7054 58.6001C37.1257 57.9711 37.35 57.2315 37.35 56.475C37.35 55.4606 36.947 54.4877 36.2297 53.7703C35.5124 53.053 34.5395 52.65 33.525 52.65ZM33.525 57.75C33.2728 57.75 33.0263 57.6753 32.8167 57.5352C32.607 57.3951 32.4436 57.1959 32.3471 56.9629C32.2506 56.73 32.2253 56.4736 32.2745 56.2263C32.3237 55.979 32.4451 55.7518 32.6235 55.5735C32.8018 55.3952 33.0289 55.2737 33.2763 55.2245C33.5236 55.1753 33.78 55.2006 34.0129 55.2971C34.2459 55.3936 34.445 55.557 34.5851 55.7667C34.7252 55.9764 34.8 56.2229 34.8 56.475C34.8 56.8132 34.6657 57.1375 34.4266 57.3766C34.1875 57.6157 33.8632 57.75 33.525 57.75Z" fill="white"/>
<path id="Vector_4" d="M22.05 18.225C22.05 18.5631 22.1843 18.8874 22.4234 19.1265C22.6625 19.3656 22.9868 19.5 23.325 19.5H57.75C58.0881 19.5 58.4124 19.3656 58.6516 19.1265C58.8907 18.8874 59.025 18.5631 59.025 18.225C59.025 17.8868 58.8907 17.5625 58.6516 17.3234C58.4124 17.0843 58.0881 16.95 57.75 16.95H23.325C22.9868 16.95 22.6625 17.0843 22.4234 17.3234C22.1843 17.5625 22.05 17.8868 22.05 18.225Z" fill="white"/>
<path id="Vector_5" d="M62.85 19.5H64.125C64.4631 19.5 64.7874 19.3656 65.0265 19.1265C65.2656 18.8874 65.4 18.5631 65.4 18.225C65.4 17.8868 65.2656 17.5625 65.0265 17.3234C64.7874 17.0843 64.4631 16.95 64.125 16.95H62.85C62.5118 16.95 62.1875 17.0843 61.9484 17.3234C61.7093 17.5625 61.575 17.8868 61.575 18.225C61.575 18.5631 61.7093 18.8874 61.9484 19.1265C62.1875 19.3656 62.5118 19.5 62.85 19.5Z" fill="white"/>
</g>
</g>
</svg>

<svg xmlns="http://www.w3.org/2000/svg" width="90" height="90" fill="none"><g fill="#fff"><path d="M79.425 18.225H70.5v-2.55a3.836 3.836 0 0 0-3.825-3.825H57.75V8.025a1.275 1.275 0 0 0-1.275-1.275H8.025A1.275 1.275 0 0 0 6.75 8.025v71.4A1.275 1.275 0 0 0 8.025 80.7h38.48a3.838 3.838 0 0 0 3.595 2.55h7.65a3.836 3.836 0 0 0 3.825-3.825V57.75h1.275a1.275 1.275 0 0 0 1.275-1.275v-5.1A1.275 1.275 0 0 0 62.85 50.1h-5.1V45h21.675a3.836 3.836 0 0 0 3.825-3.825V22.05a3.836 3.836 0 0 0-3.825-3.825Zm-8.925 10.2v-2.55h5.1V37.35H57.75v-5.1h8.925a3.836 3.836 0 0 0 3.825-3.825ZM66.675 14.4a1.275 1.275 0 0 1 1.275 1.275v12.75a1.275 1.275 0 0 1-1.275 1.275h-45.9a1.275 1.275 0 0 1-1.275-1.275v-12.75a1.275 1.275 0 0 1 1.275-1.275h45.9Zm-28.05 19.125A3.836 3.836 0 0 0 34.8 37.35v8.925a1.275 1.275 0 1 1-2.55 0V42.45a3.825 3.825 0 1 0-7.65 0v14.025a1.275 1.275 0 1 1-2.55 0V32.25H45v10.2a1.275 1.275 0 1 1-2.55 0v-5.1a3.836 3.836 0 0 0-3.825-3.825Zm7.65 44.625H9.3V9.3h45.9v2.55H20.775a3.836 3.836 0 0 0-3.825 3.825v2.55h-1.275a2.558 2.558 0 0 0-2.55 2.55v2.55a2.558 2.558 0 0 0 2.55 2.55h1.275v2.55a3.838 3.838 0 0 0 2.55 3.595v24.455a3.825 3.825 0 1 0 7.65 0V42.45a1.275 1.275 0 1 1 2.55 0v3.825a3.825 3.825 0 1 0 7.65 0V37.35a1.275 1.275 0 1 1 2.55 0v5.1a3.825 3.825 0 1 0 7.65 0v-10.2h7.65v5.1h-1.275a3.836 3.836 0 0 0-3.825 3.825V50.1H45a1.275 1.275 0 0 0-1.275 1.275v5.1A1.275 1.275 0 0 0 45 57.75h1.275v20.4ZM16.95 20.775v2.55h-1.275v-2.55h1.275Zm42.075 58.65A1.275 1.275 0 0 1 57.75 80.7H50.1a1.275 1.275 0 0 1-1.275-1.275V57.75h10.2v21.675Zm2.55-26.775v2.55h-15.3v-2.55h15.3ZM80.7 41.175a1.275 1.275 0 0 1-1.275 1.275H57.75A2.558 2.558 0 0 0 55.2 45v5.1h-2.55v-8.925a1.275 1.275 0 0 1 1.275-1.275H75.6a2.558 2.558 0 0 0 2.55-2.55V25.875a2.558 2.558 0 0 0-2.55-2.55h-5.1v-2.55h8.925A1.275 1.275 0 0 1 80.7 22.05v19.125Z"/><path d="M23.325 62.85a3.825 3.825 0 1 0 0 7.65 3.825 3.825 0 0 0 0-7.65Zm0 5.1a1.275 1.275 0 1 1 0-2.55 1.275 1.275 0 0 1 0 2.55ZM33.525 52.65a3.825 3.825 0 1 0 0 7.65 3.825 3.825 0 0 0 0-7.65Zm0 5.1a1.275 1.275 0 1 1 0-2.549 1.275 1.275 0 0 1 0 2.549ZM22.05 18.225a1.275 1.275 0 0 0 1.275 1.275H57.75a1.275 1.275 0 0 0 0-2.55H23.325a1.275 1.275 0 0 0-1.275 1.275ZM62.85 19.5h1.275a1.275 1.275 0 0 0 0-2.55H62.85a1.275 1.275 0 1 0 0 2.55Z"/></g></svg>
